X:365
%%etbk:tnset id:168,pos:3,rep:3x,ant:
%%etbk:wsite http://www.trad.katesplacedoolin.com/tunes/paddyinlondon.html
%%etbk:skill ?
%%etbk:pldat 2013-10-20T15:04,2013-09-02T18:29,2013-05-18T13:41,2013-05-14T18:09,2013-05-07T18:54,2013-05-02T18:41
T:Paddy in London
Z: Piano Box Version by Martin Fleischmann
H: Created 2013-02-19 /  Last Modified 2013-04-04
R:Jig
M:6/8
K:Ador
|: "am"!2!e!1!AA !3!fAA | !4!gfg !5!age | "G"!1!d!3!BA !1!G2A | !3!B!2!B!1!B !2!d!1!B!2!d|
"am"!3!e!1!AA !3!f!1!AA | !4!gfg !5!age | "G"!1!d!2!B!1!d !4!g!1!d!2!B |1 !2!B!1!A!2!G "am"!1!A2A:|2 !2!B!1!A!2!G "am"!1!A2!2!e|
|: "am"!1!efg !4!a2g | !4!aba !4!a!3!g!2!e | "G"!1!d!2!B!1!d !4!g2!1!d | !3!gba !3!g!2!e!1!d|
"am"!1!efg !4!a2g | !4!aba !4!a!3!g!2!e | "G"!1!d!4!ge !1!d!2!B!1!G |1 !2!BA!2!G "am"!1!A2!2!e:|2 !2!BA!2!G "am"!1!A3||
